X:416
%%etbk:tnset id:124,pos:1,rep:2x,ant:Box Solo
%%etbk:tnset id:372,pos:1,rep:2x,ant:Box Solo
%%etbk:wsite http://www.thesession.org/tunes/display/980
%%etbk:pldat 2016-01-23T14:34,2015-11-30T18:24,2015-11-26T18:39,2015-10-06T15:49,2015-10-01T18:01,2015-09-09T17:08,2015-09-03T17:17,2015-08-10T19:28,2015-08-06T16:31,2015-08-04T17:31,2015-05-28T18:00,2015-05-26T17:52,2015-04-23T17:56,2015-04-21T15:58,2015-04-15T16:55,2015-04-12T09:43,2015-03-18T15:59,2015-03-04T17:59,2015-02-22T13:37,2015-02-18T16:45,2015-02-14T12:27,2015-02-12T19:37,2015-02-10T18:17,2015-02-06T17:51,2015-02-03T15:12,2015-02-02T18:14,2015-01-29T18:46,2014-10-20T17:58,2014-10-12T14:33,2014-10-03T15:14,2014-06-07T15:03,2014-03-06T19:32,2014-02-26T17:16,2014-01-22T15:22,2014-01-21T16:27,2014-01-20T18:05,2014-01-19T12:54,2014-01-18T14:53,2014-01-15T15:35,2014-01-14T19:21,2014-01-12T13:19,2014-01-07T15:25,2013-12-29T13:20,2013-10-30T15:56,2013-10-28T17:54,2013-10-18T15:21,2013-10-13T16:18,2013-10-11T17:59,2013-09-12T17:39
T: Humours Of Tullycrine, The
Z: Piano Box Version by Martin Fleischmann
H: Created 2013-02-19 /  Last Modified 2013-02-19
M: 4/4
L: 1/8
R: hornpipe
K:Ddor
|: "dm"!1!A,!3!D!1!DE !3!FEF!4!G | !2!A!5!ddc !2!AA!1!G!2!E | !3!F2DF !2!E!1!D!2!C!1!D | "am"!2!E!4!GGA !4!G!2!E!1!D!2!C |
"dm"!1!D3E !3!FEF!4!G | !2!A!5!ddc !2!AA!1!G!2!E | !3!F2DF "am"!2!E!1!D!2!C!1!D |1 !2!EE!1!D!2!C "dm"!3!D4 :|2 !2!EE!1!D!2!C "dm"!1!D2!2!E!4!G||
|: "dm"!2!A2!4!de !4!d!3!c!2!A!1!G | !2!A!4!dde !4!d!3!c!2!A!1!G | "am"!2!A!4!ccd !4!cA!1!G2 | !2!A!4!ccd !4!c!2!A!1!G!2!E |
"dm"!1!D3E !3!FEF!4!G | !2!A!5!ddc !2!AA!1!G!2!E | !3!F2DF "am"!2!E!1!D!2!C!1!D |1 !2!EE!1!D!2!C "dm"!1!D2!2!E!4!G :|2 !2!EE!1!D!2!C "dm"!3!D4 ||


